X:1
T:The Road To Ballymac x2
L:1/8
Q:1/4=180
M:4/4
K:D
|:"G"!mf! z2 .G,,2 z2 .B,,2 | .D,3 (D,"C" E,D,) E, z |"G" G,2 z2"C" z4 |"G" z8"D7" |"G"!mf! z2 .G,,2 z2 .B,,2 |"G".D,3 (D,"C" E,D,) E, z |"C/D" D,D, z2 z2 D,D, |1"D" z4 D,4 :|2"D" z4"G" D,4 |:"G" G,,2 .G,,2"Em" z G,,3 |"C".G,,2 z A,,-"D7" A,,4 |"G" G,,2 .G,,2"Am" z A,,3 |"C" .C,2 z D,-"D7" D,4 |"G" G,,2 .G,,2"Em" z G,,3 |"C" .G,,2 z A,,-"D7" A,,4 |"G".B,,2 z C,-"C" C,2 B,,2 |1"D7" .A,,2 z2"G" G,,4 :|2"D7" .A,,2 z2"G" G,,4 |:"D" z2 D,2- D,2 .D,2 |"A"z2 A,,2- A,,2 .A,,2 |"Bm" z2 B,,2- B,,2 .B,,2 |"F#m" z2 F,,2- F,,2 .F,,2 |"G" z2 G,,2- G,,2 .G,,2 |"D"z2 D,,2- D,,2 .D,,2 |"G" z4 G,,2 F,,2 |1"A7" .E,2 z2"A" C,4 :|2"A" .E,2 z2"D" A,,4 |:"D" z2 F,2 z2 F,2 |"A"z2 E,2 z2 E,2 |"Bm" z2 D,2 z2 D,2 |"F#m" z2 C,2 z2 C,2 |"G" z2 D,2 z2 D,2 |"D" z2 D,2 z2 D,2 |"G" z2 D,2 z2 D,2 |1"A7"z2 E,2"A" z2 E,2 :|2"A" z2 E,2"D" F,4 ||"A" z2 .E,2 z4 |"D" !fermata!F,8 |
